TileServer und Tiles/svg/9/42_30.svg

<?xml version='1.0' encoding='UTF-8' standalone='no'?>
<svg xmlns="http://www.w3.org/2000/svg" width="497pt" viewBox="0 0 497 279" xmlns:xlink="http://www.w3.org/1999/xlink" height="279pt">
 <defs style="stroke:none;" overflow="visible">
  <path id="glyph0-4" d="M 1.9375 0.09375 C 1.507812 0.09375 1.160156 -0.0546875 0.890625 -0.359375 C 0.617188 -0.671875 0.484375 -1.128906 0.484375 -1.734375 C 0.484375 -2.234375 0.546875 -2.707031 0.671875 -3.15625 C 0.804688 -3.601562 0.988281 -4 1.21875 -4.34375 C 1.445312 -4.6875 1.722656 -4.957031 2.046875 -5.15625 C 2.367188 -5.351562 2.722656 -5.453125 3.109375 -5.453125 C 3.460938 -5.453125 3.75 -5.359375 3.96875 -5.171875 C 4.1875 -4.992188 4.347656 -4.78125 4.453125 -4.53125 L 4.515625 -4.53125 L 4.828125 -5.359375 L 5.5 -5.359375 L 4.359375 0 L 3.65625 0 L 3.796875 -0.984375 L 3.75 -0.984375 C 3.519531 -0.691406 3.25 -0.4375 2.9375 -0.21875 C 2.632812 -0.0078125 2.300781 0.09375 1.9375 0.09375 Z M 2.21875 -0.625 C 2.46875 -0.625 2.707031 -0.710938 2.9375 -0.890625 C 3.175781 -1.078125 3.390625 -1.320312 3.578125 -1.625 C 3.773438 -1.9375 3.925781 -2.28125 4.03125 -2.65625 C 4.082031 -2.851562 4.113281 -3.03125 4.125 -3.1875 C 4.144531 -3.351562 4.15625 -3.507812 4.15625 -3.65625 C 4.15625 -3.96875 4.066406 -4.222656 3.890625 -4.421875 C 3.722656 -4.617188 3.492188 -4.71875 3.203125 -4.71875 C 2.941406 -4.71875 2.703125 -4.632812 2.484375 -4.46875 C 2.265625 -4.3125 2.070312 -4.085938 1.90625 -3.796875 C 1.738281 -3.515625 1.609375 -3.191406 1.515625 -2.828125 C 1.421875 -2.472656 1.375 -2.097656 1.375 -1.703125 C 1.375 -1.347656 1.445312 -1.078125 1.59375 -0.890625 C 1.738281 -0.710938 1.945312 -0.625 2.21875 -0.625 Z M 2.21875 -0.625 "/>
  <path id="glyph0-3" d="M 0.28125 0 L 1.421875 -5.359375 L 2.296875 -5.359375 L 1.828125 -3.125 L 4.34375 -3.125 L 4.828125 -5.359375 L 5.703125 -5.359375 L 4.578125 0 L 3.6875 0 L 4.1875 -2.40625 L 1.671875 -2.40625 L 1.15625 0 Z M 0.28125 0 "/>
  <path id="glyph0-2" d="M 2.421875 0.09375 C 1.796875 0.09375 1.316406 -0.0820312 0.984375 -0.4375 C 0.648438 -0.800781 0.484375 -1.296875 0.484375 -1.921875 C 0.484375 -2.347656 0.539062 -2.769531 0.65625 -3.1875 C 0.78125 -3.601562 0.957031 -3.984375 1.1875 -4.328125 C 1.425781 -4.671875 1.710938 -4.941406 2.046875 -5.140625 C 2.378906 -5.347656 2.75 -5.453125 3.15625 -5.453125 C 3.664062 -5.453125 4.046875 -5.34375 4.296875 -5.125 C 4.554688 -4.90625 4.6875 -4.597656 4.6875 -4.203125 C 4.6875 -3.859375 4.578125 -3.539062 4.359375 -3.25 C 4.148438 -2.96875 3.8125 -2.738281 3.34375 -2.5625 C 2.882812 -2.394531 2.289062 -2.3125 1.5625 -2.3125 L 1.390625 -2.3125 C 1.378906 -2.257812 1.375 -2.195312 1.375 -2.125 C 1.375 -2.0625 1.375 -2.003906 1.375 -1.953125 C 1.375 -1.546875 1.472656 -1.222656 1.671875 -0.984375 C 1.867188 -0.742188 2.171875 -0.625 2.578125 -0.625 C 2.828125 -0.625 3.066406 -0.660156 3.296875 -0.734375 C 3.523438 -0.804688 3.773438 -0.910156 4.046875 -1.046875 L 4.046875 -0.296875 C 3.785156 -0.179688 3.535156 -0.0859375 3.296875 -0.015625 C 3.054688 0.0546875 2.765625 0.09375 2.421875 0.09375 Z M 1.515625 -3.03125 L 1.59375 -3.03125 C 1.988281 -3.03125 2.351562 -3.0625 2.6875 -3.125 C 3.03125 -3.195312 3.304688 -3.316406 3.515625 -3.484375 C 3.722656 -3.648438 3.828125 -3.867188 3.828125 -4.140625 C 3.828125 -4.316406 3.769531 -4.457031 3.65625 -4.5625 C 3.539062 -4.675781 3.359375 -4.734375 3.109375 -4.734375 C 2.785156 -4.734375 2.472656 -4.582031 2.171875 -4.28125 C 1.878906 -3.988281 1.660156 -3.570312 1.515625 -3.03125 Z M 1.515625 -3.03125 "/>
  <path id="glyph0-1" d="M 0.296875 0.109375 C 0.160156 0.109375 0.0390625 0.0976562 -0.0625 0.078125 C -0.164062 0.0546875 -0.25 0.03125 -0.3125 0 L -0.3125 -0.78125 C -0.25 -0.75 -0.171875 -0.722656 -0.078125 -0.703125 C 0.00390625 -0.691406 0.09375 -0.6875 0.1875 -0.6875 C 0.382812 -0.6875 0.554688 -0.726562 0.703125 -0.8125 C 0.859375 -0.894531 1.003906 -1.039062 1.140625 -1.25 C 1.273438 -1.46875 1.410156 -1.78125 1.546875 -2.1875 C 1.648438 -2.488281 1.765625 -2.835938 1.890625 -3.234375 C 2.015625 -3.640625 2.140625 -4.066406 2.265625 -4.515625 C 2.390625 -4.960938 2.515625 -5.410156 2.640625 -5.859375 C 2.765625 -6.316406 2.878906 -6.742188 2.984375 -7.140625 L 6.546875 -7.140625 L 5.015625 0 L 4.125 0 L 5.46875 -6.34375 L 3.65625 -6.34375 C 3.5625 -6.007812 3.460938 -5.648438 3.359375 -5.265625 C 3.253906 -4.878906 3.144531 -4.484375 3.03125 -4.078125 C 2.914062 -3.671875 2.800781 -3.28125 2.6875 -2.90625 C 2.582031 -2.539062 2.476562 -2.21875 2.375 -1.9375 C 2.226562 -1.507812 2.066406 -1.140625 1.890625 -0.828125 C 1.722656 -0.523438 1.515625 -0.289062 1.265625 -0.125 C 1.015625 0.03125 0.691406 0.109375 0.296875 0.109375 Z M 0.296875 0.109375 "/>
  <path id="glyph0-0" d="M 0.9375 0 L 0.9375 -7.140625 L 5.046875 -7.140625 L 5.046875 0 Z M 1.453125 -0.515625 L 4.546875 -0.515625 L 4.546875 -6.625 L 1.453125 -6.625 Z M 1.453125 -0.515625 "/>
 </defs>
 <image width="497" xlink:href="svg/9/42_30.jpg" height="279"/>
 <g>
  <path d="M 411.789062 133.832031 C 411.652344 133.832031 411.53125 133.820312 411.429688 133.800781 C 411.328125 133.777344 411.242188 133.753906 411.179688 133.722656 L 411.179688 132.941406 C 411.242188 132.972656 411.320312 133 411.414062 133.019531 C 411.496094 133.03125 411.585938 133.035156 411.679688 133.035156 C 411.875 133.035156 412.046875 132.996094 412.195312 132.910156 C 412.351562 132.828125 412.496094 132.683594 412.632812 132.472656 C 412.765625 132.253906 412.902344 131.941406 413.039062 131.535156 C 413.140625 131.234375 413.257812 130.886719 413.382812 130.488281 C 413.507812 130.082031 413.632812 129.65625 413.757812 129.207031 C 413.882812 128.761719 414.007812 128.3125 414.132812 127.863281 C 414.257812 127.40625 414.371094 126.980469 414.476562 126.582031 L 418.039062 126.582031 L 416.507812 133.722656 L 415.617188 133.722656 L 416.960938 127.378906 L 415.148438 127.378906 C 415.054688 127.714844 414.953125 128.074219 414.851562 128.457031 C 414.746094 128.84375 414.636719 129.238281 414.523438 129.644531 C 414.40625 130.050781 414.292969 130.441406 414.179688 130.816406 C 414.074219 131.183594 413.96875 131.503906 413.867188 131.785156 C 413.71875 132.214844 413.558594 132.582031 413.382812 132.894531 C 413.214844 133.199219 413.007812 133.433594 412.757812 133.597656 C 412.507812 133.753906 412.183594 133.832031 411.789062 133.832031 Z M 411.789062 133.832031 " transform=" rotate(  340 423.481 130.725) " style="fill:none;stroke-width:2;stroke-linecap:butt;stroke-linejoin:round;stroke:rgb(100%,100%,100%);stroke-opacity:0.6;stroke-miterlimit:10;"/>
  <path d="M 420.402344 133.816406 C 419.777344 133.816406 419.296875 133.640625 418.964844 133.285156 C 418.628906 132.921875 418.464844 132.425781 418.464844 131.800781 C 418.464844 131.375 418.519531 130.953125 418.636719 130.535156 C 418.761719 130.121094 418.9375 129.738281 419.167969 129.394531 C 419.40625 129.050781 419.691406 128.78125 420.027344 128.582031 C 420.359375 128.375 420.730469 128.269531 421.136719 128.269531 C 421.644531 128.269531 422.027344 128.378906 422.277344 128.597656 C 422.535156 128.816406 422.667969 129.125 422.667969 129.519531 C 422.667969 129.863281 422.558594 130.183594 422.339844 130.472656 C 422.128906 130.753906 421.792969 130.984375 421.324219 131.160156 C 420.863281 131.328125 420.269531 131.410156 419.542969 131.410156 L 419.371094 131.410156 C 419.359375 131.464844 419.355469 131.527344 419.355469 131.597656 C 419.355469 131.660156 419.355469 131.71875 419.355469 131.769531 C 419.355469 132.175781 419.453125 132.5 419.652344 132.738281 C 419.847656 132.980469 420.152344 133.097656 420.558594 133.097656 C 420.808594 133.097656 421.046875 133.0625 421.277344 132.988281 C 421.503906 132.917969 421.753906 132.8125 422.027344 132.675781 L 422.027344 133.425781 C 421.765625 133.542969 421.515625 133.636719 421.277344 133.707031 C 421.035156 133.777344 420.746094 133.816406 420.402344 133.816406 Z M 419.496094 130.691406 L 419.574219 130.691406 C 419.96875 130.691406 420.332031 130.660156 420.667969 130.597656 C 421.011719 130.527344 421.285156 130.40625 421.496094 130.238281 C 421.703125 130.074219 421.808594 129.855469 421.808594 129.582031 C 421.808594 129.40625 421.75 129.265625 421.636719 129.160156 C 421.519531 129.046875 421.339844 128.988281 421.089844 128.988281 C 420.765625 128.988281 420.453125 129.140625 420.152344 129.441406 C 419.859375 129.734375 419.640625 130.152344 419.496094 130.691406 Z M 419.496094 130.691406 " transform=" rotate(  340 423.481 130.725) " style="fill:none;stroke-width:2;stroke-linecap:butt;stroke-linejoin:round;stroke:rgb(100%,100%,100%);stroke-opacity:0.6;stroke-miterlimit:10;"/>
  <path d="M 423.253906 133.722656 L 424.394531 128.363281 L 425.269531 128.363281 L 424.800781 130.597656 L 427.316406 130.597656 L 427.800781 128.363281 L 428.675781 128.363281 L 427.550781 133.722656 L 426.660156 133.722656 L 427.160156 131.316406 L 424.644531 131.316406 L 424.128906 133.722656 Z M 423.253906 133.722656 " transform=" rotate(  340 423.481 130.725) " style="fill:none;stroke-width:2;stroke-linecap:butt;stroke-linejoin:round;stroke:rgb(100%,100%,100%);stroke-opacity:0.6;stroke-miterlimit:10;"/>
  <path d="M 430.917969 133.816406 C 430.488281 133.816406 430.140625 133.667969 429.871094 133.363281 C 429.597656 133.050781 429.464844 132.59375 429.464844 131.988281 C 429.464844 131.488281 429.527344 131.015625 429.652344 130.566406 C 429.785156 130.121094 429.96875 129.722656 430.199219 129.378906 C 430.425781 129.035156 430.703125 128.765625 431.027344 128.566406 C 431.347656 128.371094 431.703125 128.269531 432.089844 128.269531 C 432.441406 128.269531 432.730469 128.363281 432.949219 128.550781 C 433.167969 128.730469 433.328125 128.941406 433.433594 129.191406 L 433.496094 129.191406 L 433.808594 128.363281 L 434.480469 128.363281 L 433.339844 133.722656 L 432.636719 133.722656 L 432.777344 132.738281 L 432.730469 132.738281 C 432.5 133.03125 432.230469 133.285156 431.917969 133.503906 C 431.613281 133.714844 431.28125 133.816406 430.917969 133.816406 Z M 431.199219 133.097656 C 431.449219 133.097656 431.6875 133.011719 431.917969 132.832031 C 432.15625 132.644531 432.371094 132.402344 432.558594 132.097656 C 432.753906 131.785156 432.90625 131.441406 433.011719 131.066406 C 433.0625 130.871094 433.09375 130.691406 433.105469 130.535156 C 433.125 130.371094 433.136719 130.214844 433.136719 130.066406 C 433.136719 129.753906 433.046875 129.5 432.871094 129.300781 C 432.703125 129.105469 432.472656 129.003906 432.183594 129.003906 C 431.921875 129.003906 431.683594 129.089844 431.464844 129.253906 C 431.246094 129.410156 431.050781 129.636719 430.886719 129.925781 C 430.71875 130.207031 430.589844 130.53125 430.496094 130.894531 C 430.402344 131.25 430.355469 131.625 430.355469 132.019531 C 430.355469 132.375 430.425781 132.644531 430.574219 132.832031 C 430.71875 133.011719 430.925781 133.097656 431.199219 133.097656 Z M 431.199219 133.097656 " transform=" rotate(  340 423.481 130.725) " style="fill:none;stroke-width:2;stroke-linecap:butt;stroke-linejoin:round;stroke:rgb(100%,100%,100%);stroke-opacity:0.6;stroke-miterlimit:10;"/>
  <g transform=" rotate(  340 423.481 130.725) " style="fill:rgb(30.196078%,50.196078%,70.196078%);fill-opacity:1;">
   <use xlink:href="#glyph0-1" y="133.724596" x="411.491087"/>
   <use xlink:href="#glyph0-2" y="133.724596" x="417.981087"/>
   <use xlink:href="#glyph0-3" y="133.724596" x="422.971087"/>
   <use xlink:href="#glyph0-4" y="133.724596" x="428.981087"/>
  </g>
 </g>
</svg>

<svg xmlns="http://www.w3.org/2000/svg" xmlns:xlink="http://www.w3.org/1999/xlink" viewBox="0 0 497 279"> <defs overflow="visible" style="stroke:none">  <path id="d" d="M2 0c-.6 0-.9 0-1.2-.3C.6-.7.5-1 .5-1.7c0-.5 0-1 .2-1.5l.5-1.1c.2-.4.5-.7.8-.9a2 2 0 0 1 1.1-.3c.4 0 .6.1.9.3l.5.7.3-.9h.7L4.4 0h-.7l.1-1c-.3.3-.5.6-.9.8-.3.2-.6.2-.9.2Zm.1-.5c.4-.1.6-.2.9-.5l.6-.6a4 4 0 0 0 .4-1 3 3 0 0 0 .1-.7 4 4 0 0 0 0-.4c.1-.3.1-.5-.1-.7-.3-.2-.5-.3-.8-.3-.3 0-.5 0-.7.2a2 2 0 0 0-.6.7l-.4 1-.1 1.1c0 .4 0 .6.2.8.1.2.3.3.6.3Zm.1-.1"/>  <path id="c" d="m.3 0 1.1-5.4h.9L1.8-3h2.5l.5-2.4h.9L4.6 0h-1l.7-2.4H1.7L1.2 0Zm0 0"/>  <path id="b" d="M2.4 0c-.6 0-1 0-1.4-.3C.6-.8.5-1.3.5-2c0-.3 0-.8.2-1.2 0-.4.3-.8.5-1.1.2-.4.5-.7.8-.8a2 2 0 0 1 1.2-.4c.5 0 .8.2 1.1.5.3 0 .4.4.4.8 0 .3-.1.7-.3 1-.4.2-.6.4-1 .6-.6.2-1.2.3-1.9.3h-.1v.3c0 .5 0 .8.3 1 .2.3.5.4.9.4l.7-.1A5 5 0 0 0 4-1v.7a6 6 0 0 1-.7.3h-.9Zm-.9-3 1.3-.1.7-.4c.2-.1.3-.4.3-.5l-.1-.6-.7-.1c-.2 0-.5.1-.9.4L1.6-3Zm0 0"/>  <path id="a" d="M.3.1a2 2 0 0 1-.4 0L-.3 0v-.8l.2.1h.3l.5-.1c.2 0 .3-.2.4-.4l.4-1.1A49.1 49.1 0 0 0 3-7.2h3.5L5 0h-.9l1.4-6.3H3.7l-.3 1a217.3 217.3 0 0 1-1 3.4l-.5.9-.6 1h-1Zm0 0"/>  <path d="M1 0v-7.1h4V0Zm.4-.5h3.1v-6.1h-3Zm.1 0"/> </defs> <image xlink:href="svg/9/42_30.jpg" width="497" height="279"/> <path d="M411.8 133.8a2 2 0 0 1-.4 0h-.2v-1l.2.2h.8l.4-.6c.2-.1.4-.5.4-.9a49.1 49.1 0 0 0 .8-2.3l.2-1.2.5-1.4h3.5l-1.5 7.1h-.9l1.4-6.3h-2v1a217.2 217.2 0 0 1-1.1 3.5l-.5.9-.6.9c-.3.1-.6.1-1 .1Zm8.6 0c-.6 0-1.1-.2-1.4-.5-.4-.4-.5-.9-.5-1.5l.1-1.3c.2-.4.4-.8.6-1.1l.8-.8a2 2 0 0 1 1.1-.3c.5 0 1 0 1.2.3.2.2.4.5.4 1 0 .2-.1.5-.4.8-.2.4-.5.6-1 .8l-1.8.2h-.1v.4c0 .4 0 .7.3 1 .1.2.5.2.9.2h.7a5 5 0 0 0 .7-.3v.7a6 6 0 0 1-.7.3l-.9.1Zm-.9-3.1 1.3-.1c.2 0 .5-.2.7-.4.2-.1.3-.2.3-.6 0-.2 0-.3-.2-.4 0-.2-.3-.2-.5-.2-.3 0-.6 0-1.1.4 0 .3-.3.8-.4 1.3Zm3.8 3 1-5.3h1.1l-.6 2.2h2.5l.5-2.2h.9l-1.1 5.3h-1l.7-2.4h-2.7l-.5 2.4Zm7.7.1c-.6 0-1-.1-1.2-.4-.2-.4-.3-.8-.3-1.4 0-.5 0-1 .2-1.4 0-.6.3-.9.5-1.2.2-.4.5-.6.8-.8a2 2 0 0 1 1-.3c.5 0 .8 0 1 .3.1.1.2.3.3.6h.2l.3-.8h.7l-1.2 5.3h-.7l.2-1-1 .8c-.2.2-.5.3-.8.3Zm.1-.7c.3 0 .6 0 .8-.3l.7-.7a4 4 0 0 0 .4-1 3 3 0 0 0 .1-.6 4 4 0 0 0 0-.4c0-.3 0-.6-.1-.8-.3-.2-.5-.3-.8-.3-.3 0-.5 0-.7.3a2 2 0 0 0-.6.6l-.4 1.1-.1 1c0 .4 0 .6.2.8.1.2.3.3.6.3Zm.1 0" style="fill:none;stroke-width:2;stroke-linecap:butt;stroke-linejoin:round;stroke:#fff;stroke-opacity:.6;stroke-miterlimit:10" transform=" rotate(  340 423.481 130.725) "/> <g style="fill:#4d80b3;fill-opacity:1" transform=" rotate(  340 423.481 130.725) ">  <use xlink:href="#a" x="411.5" y="133.7"/>  <use xlink:href="#b" x="418" y="133.7"/>  <use xlink:href="#c" x="423" y="133.7"/>  <use xlink:href="#d" x="429" y="133.7"/> </g></svg>
